Sources/FrostedUI/Resources/Icons.xcassets/illuminatiFilled20.imageset/illuminati-filled-20.svg

<svg width="20" height="20" viewBox="0 0 20 20" fill="none" xmlns="http://www.w3.org/2000/svg" data-fui-icon="true">
  <path
    d="M8.27551 2.24219C9.04891 0.928418 10.9493 0.928473 11.7228 2.24219L19.5372 15.5273C20.3214 16.8606 19.3603 18.5409 17.8136 18.541H2.18469C0.638236 18.5407 -0.322872 16.8604 0.46106 15.5273L8.27551 2.24219ZM10.1779 6.50391C11.8899 6.59647 13.2491 8.0149 13.2491 9.75C13.2491 11.5449 11.7941 13 9.99915 13C8.2044 12.9998 6.74916 11.5448 6.74915 9.75C6.74915 8.01514 8.10877 6.59683 9.82043 6.50391C7.9236 6.55537 6.44852 7.41639 5.40735 8.34473C4.60549 9.05978 4.03857 9.83231 3.70227 10.3574L3.4425 10.7891C3.24911 11.1342 3.25114 11.555 3.45325 11.8994C3.70247 12.3235 4.3576 13.3334 5.42786 14.2441C6.50347 15.1593 8.03161 15.9999 9.99915 16C11.9667 15.9999 13.4948 15.1593 14.5704 14.2441C15.6407 13.3335 16.2957 12.3236 16.545 11.8994C16.7473 11.555 16.7493 11.1343 16.5558 10.7891C16.3113 10.3531 15.66 9.29802 14.5909 8.34473C13.5496 7.41631 12.075 6.55514 10.1779 6.50391ZM9.99915 8C9.03281 8.0002 8.24915 8.78362 8.24915 9.75C8.24916 10.7164 9.03282 11.4998 9.99915 11.5C10.9656 11.5 11.7491 10.7165 11.7491 9.75C11.7491 8.7835 10.9656 8 9.99915 8Z"
    fill="currentColor"
  />
</svg>

<svg xmlns="http://www.w3.org/2000/svg" width="20" height="20" fill="none" data-fui-icon="true" viewBox="0 0 20 20"><path fill="currentColor" d="M8.276 2.242c.773-1.314 2.673-1.314 3.447 0l7.814 13.285c.784 1.334-.177 3.014-1.723 3.014H2.184c-1.546 0-2.507-1.68-1.723-3.014zm1.902 4.262a3.25 3.25 0 1 1-.358 0c-1.896.051-3.371.912-4.413 1.84a9.9 9.9 0 0 0-1.705 2.013l-.26.432c-.193.345-.19.766.011 1.11.25.425.905 1.434 1.975 2.345C6.503 15.16 8.032 16 9.999 16c1.968 0 3.496-.84 4.571-1.756a9.5 9.5 0 0 0 1.975-2.345c.202-.344.204-.765.01-1.11a9.9 9.9 0 0 0-1.964-2.444c-1.041-.929-2.516-1.79-4.413-1.841M9.999 8a1.75 1.75 0 1 0 0 3.5A1.75 1.75 0 0 0 10 8"/></svg>
